X: 20301
Q: "Moderato"
M: 2/4
L: 1/16
K: Am
E4 |\
{^G}A3B (AB).c.d | d2A2 (BA).G.E | G2(g^f) (ed)cB | {B}A4 A2 :|
|: B2 |\
c3ec2G2 | (cd).e.f g2c2 | B2G2d2G2 | (Bc).d.e (ed).c.B |\
|: (eg) |\
a4 a2(ga) | {ga}b2a2 (a2ge) | d3eg3a | {ga}b3ag2d2 |\
e2a2 a2(ga) | {ga}b3a (a2g^f) | (g2dg) (ed).c.B | {B}A4 A2 :|
|: (ed) |\
(cd).c.B (A^G).A.E | (AB).c.d {f}e2dc | BGdG eGdG | Bdg.^f (ed).c.B |\
(cd).c.B (A^G).A.E | (AB).c.d ({f}e2dc) | (de).g.a (ge).d.B | {B}A4 A2 :|


